X: 34
T: 34. Erbarm dich mein, o Herre Gott
N: Derived from chor034.krn
C: Johann Sebastian Bach
%%abc-version 2.0
%%abcx-abcm2ps-target-version 5.9.1 (29 Sep 2008)
%%abc-creator hum2abc beta
%%abcx-conversion-date 2019/03/11 17:28:17
%%abc-edited-by Craig Stuart Sapp
%%humdrum-veritas 4177136915
%%humdrum-veritas-data 3532687628
%%
%%barnumbers 0
L: 1/8
M: C
%%staves [1 2 3 4]
V: 1 clef=treble
V: 2 clef=treble
V: 3 clef=treble-8
V: 4 clef=bass
K: C
[V:1] E2 [I:setbarnb 1]| 
[V:2] B,2 | 
[V:3] G2 | 
[V:4] E,2- | 
[V:1] G2G2A2B2 | 
[V:2] E2E2E2FE | 
[V:3] B2B2c2d2 | 
[V:4] E,F,E,D, C,A,2^G, | 
[V:1] c2B2!fermata!A2G2 | 
[V:2] EA2^G!fermata!E2EF | 
[V:3] ce fe/d/!fermata!c2B2 | 
[V:4] A,C,D,E,!fermata!A,,2E,D, | 
[V:1] c2B2c2A2 | 
[V:2] GA- AG/F/G3F- | 
[V:3] e2fe/d/c2c2- | 
[V:4] C,2D,G, E,C,F,2 | 
[V:1] G2F2!fermata!E2 :|]  
[V:2] FE- ED/C/!fermata!B,2 :|]  
[V:3] c3/_B/ AB/A/!fermata!^G2 :|]  
[V:4] C,2D,2!fermata!E,2 :|]  
[V:1] E2 [I:setbarnb 5]| 
[V:2] C2 | 
[V:3] A2 | 
[V:4] A,G, | 
[V:1] A2A2G2c2 | 
[V:2] F2F2FE/D/ E^F | 
[V:3] c2d2-dc GA | 
[V:4] F,E,D,C, B,,C, B,,A,, | 
[V:1] B2A2!fermata!G2G2 | 
[V:2] G/D/G2^F!fermata!D2E2 | 
[V:3] Dd ed/c/!fermata!B2c2 | 
[V:4] G,,B,, C,D,!fermata!G,,2C,B,, | 
[V:1] c2G2A2E2 | 
[V:2] E2-ED C=B, ^CD | 
[V:3] c2-c_BA2A2 | 
[V:4] A,,B,,C,E,, F,,G,,A,,B,, | 
[V:1] AGF2!fermata!E2E2 | 
[V:2] E3D- D!fermata!^C=C2 | 
[V:3] A2A2!fermata!A2A2 | 
[V:4] ^C,A,, D,D,,!fermata!A,,2A,G, | 
[V:1] A2A2GFE2 | 
[V:2] C_E2DD2C2 | 
[V:3] Ac2B/A/B2cB | 
[V:4] F,2^F,2G,2A,G, | 
[V:1] F2D2!fermata!C2C2 | 
[V:2] C2-CB,!fermata!G,2G,2 | 
[V:3] A2G3/F/!fermata!E2E2 | 
[V:4] F,D, G,G,,!fermata!C,2C,2 | 
[V:1] G4A2B2 | 
[V:2] D2EDC2D2 | 
[V:3] G2cd efg2 | 
[V:4] B,,2C,B,,A,,2G,,F,, | 
[V:1] c2G2A2G2 | 
[V:2] EF GEF2-FE- | 
[V:3] G2c2c2-c3/_B/ | 
[V:4] E,,D,,E,,C,, F,,A,,C,2 | 
[V:1] F3F!fermata!E2 |]  
[V:2] ED- DC!fermata!B,2 |]  
[V:3] A=B/c/ BA!fermata!^G2 |]  
[V:4] D,4!fermata!E,2 |]  



